X:1
T:Psalm 15
T:V 2
L:1/4
M:14/4
I:linebreak $
K:C
V:1 treble nm="Pipe Organ" snm="Org."
V:1
 F2 F F G2 _B2 A A G3 z |$[M:16/4] G2 A _B c2 G2 B B A2 G3 z |$[M:14/4] G2 G G F2 F2 G A _B3 z |$ %3
w: Dié wat, op- reg in sy ge- moed,|na Gods ver- he- we eis wil han- del,|hom vir be- drog en leu- en hoed;|
 d2 c _B A2 G2 B B A3 z |$[M:16/4] c2 _B G A2 G2 A B G2 F4 |] %5
w: en is dit voor- of te- ë- spoed,|die waar- heid spreek in hart en wan- del.|

